style-guide/assets/wds-icons-unlock-small.svg

<svg xmlns="http://www.w3.org/2000/svg" xmlns:xlink="http://www.w3.org/1999/xlink" viewBox="0 0 18 18">
  <defs>
    <path id="unlock-a" d="M14 16H4V8h10v8zm1-10H7V4c0-1.104.897-2 2-2 .533 0 1.035.209 1.413.587a.999.999 0 1 0 1.414-1.414A3.969 3.969 0 0 0 9 0C6.794 0 5 1.795 5 4v2H3a1 1 0 0 0-1 1v10a1 1 0 0 0 1 1h12a1 1 0 0 0 1-1V7a1 1 0 0 0-1-1zm-5 4H8a1 1 0 1 0 0 2v1a1 1 0 1 0 2 0v-1a1 1 0 1 0 0-2"/>
  </defs>
  <use fill-rule="evenodd" xlink:href="#unlock-a"/>
</svg>

<svg xmlns="http://www.w3.org/2000/svg" xmlns:xlink="http://www.w3.org/1999/xlink" width="18" height="18" viewBox="0 0 18 18">
  <defs>
    <path id="unlock-a" d="M14,16 L4,16 L4,8 L6,8 L12,8 L14,8 L14,16 Z M15,6 L12,6 L7,6 L7,4 C7,2.896 7.897,2 9,2 C9.533,2 10.035,2.209 10.413,2.587 C10.804,2.978 11.437,2.978 11.827,2.587 C12.218,2.196 12.218,1.563 11.827,1.173 C11.071,0.416 10.067,0 9,0 C6.794,0 5,1.795 5,4 L5,6 L3,6 C2.448,6 2,6.447 2,7 L2,17 C2,17.553 2.448,18 3,18 L15,18 C15.552,18 16,17.553 16,17 L16,7 C16,6.447 15.552,6 15,6 Z M10,10 L8,10 C7.448,10 7,10.447 7,11 C7,11.553 7.448,12 8,12 L8,13 C8,13.553 8.448,14 9,14 C9.552,14 10,13.553 10,13 L10,12 C10.552,12 11,11.553 11,11 C11,10.447 10.552,10 10,10"/>
  </defs>
  <use fill-rule="evenodd" xlink:href="#unlock-a"/>
</svg>
